lib/brands/logos/discover.svg

<svg xmlns="http://www.w3.org/2000/svg" fill="none" aria-hidden="true" viewBox="0 0 250 48"><g id="Discover"><g id="Group"><path id="Vector" fill="url(#paint0_linear_93_14109)" d="M131.682 4.60243C120.708 4.60243 111.806 13.1748 111.806 23.7548C111.806 35.0031 120.322 43.4116 131.682 43.4116C142.758 43.4116 151.504 34.8919 151.504 23.9756C151.504 13.1243 142.817 4.60243 131.682 4.60243Z"/><path id="Vector_2" fill="#0B1015" d="M18.8428 5.30098H8.15747V42.5709H18.7873C24.4269 42.5709 28.5056 41.2344 32.0835 38.2707C36.3289 34.7498 38.8468 29.4406 38.8468 23.954C38.8468 12.9504 30.6265 5.30098 18.8428 5.30098ZM27.3409 33.2928C25.0432 35.366 22.0852 36.2616 17.3844 36.2616H15.4316V11.6117H17.3844C22.0852 11.6117 24.9299 12.451 27.3409 14.6282C29.8551 16.8639 31.3547 20.3256 31.3547 23.9006C31.3547 27.4828 29.8551 31.0658 27.3409 33.2928ZM42.2024 42.5709H49.4643V5.30098H42.2024V42.5709ZM67.2434 19.5974C62.8789 17.9802 61.5944 16.9136 61.5944 14.9089C61.5944 12.56 63.8812 10.7732 67.0161 10.7732C69.1954 10.7732 70.9837 11.6666 72.8895 13.7839L76.6846 8.81826C73.5556 6.07386 69.8117 4.67892 65.7279 4.67892C59.1401 4.67892 54.1066 9.26352 54.1066 15.3491C54.1066 20.4952 56.4519 23.119 63.2722 25.5842C66.1241 26.5851 67.5739 27.2526 68.302 27.7087C69.7547 28.6591 70.4843 29.9956 70.4843 31.5594C70.4843 34.5816 68.079 36.8137 64.8331 36.8137C61.3678 36.8137 58.5765 35.0832 56.8986 31.8423L52.2101 36.3742C55.5564 41.285 59.581 43.4715 65.1196 43.4715C72.6636 43.4715 77.9699 38.4352 77.9699 31.2281C77.9699 25.3035 75.517 22.619 67.2434 19.5974ZM80.2604 23.954C80.2604 34.9193 88.8696 43.4116 99.9381 43.4116C103.067 43.4116 105.749 42.7932 109.05 41.2344V32.6794C106.14 35.5883 103.569 36.7588 100.27 36.7588C92.9504 36.7588 87.7496 31.4482 87.7496 23.9006C87.7496 16.7506 93.1128 11.1051 99.9381 11.1051C103.398 11.1051 106.029 12.3341 109.05 15.2957V6.74138C105.865 5.12562 103.234 4.46027 100.104 4.46027C89.0918 4.46027 80.2604 13.1243 80.2604 23.954ZM167.952 30.3362L158.004 5.30098H150.067L165.889 43.5228H169.798L185.897 5.30098H178.018L167.952 30.3362ZM189.201 42.5709H209.821V36.2616H196.466V26.1947H209.31V19.8839H196.466V11.6117H209.821V5.30098H189.201V42.5709ZM238.597 16.3003C238.597 9.31836 233.797 5.30098 225.409 5.30098H214.621V42.5709H221.893V27.5918H222.845L232.9 42.5709H241.843L230.099 26.8716C235.584 25.7502 238.597 22.0041 238.597 16.3003ZM224.009 22.4551H221.893V11.1614H224.125C228.662 11.1614 231.12 13.0673 231.12 16.6943C231.12 20.436 228.662 22.4551 224.009 22.4551Z"/></g></g><defs><linearGradient id="paint0_linear_93_14109" x1="119.513" x2="146.337" y1="8.11978" y2="36.4507" gradientUnits="userSpaceOnUse"><stop stop-color="#F34F26"/><stop offset="1" stop-color="#F69E35"/></linearGradient></defs></svg>

<svg xmlns="http://www.w3.org/2000/svg" fill="none" aria-hidden="true" viewBox="0 0 250 48"><path fill="url(#a)" d="M131.682 4.602c-10.974 0-19.876 8.573-19.876 19.153 0 11.248 8.516 19.657 19.876 19.657 11.076 0 19.822-8.52 19.822-19.436 0-10.852-8.687-19.374-19.822-19.374Z"/><path fill="#0B1015" d="M18.843 5.301H8.157v37.27h10.63c5.64 0 9.719-1.337 13.297-4.3 4.245-3.521 6.763-8.83 6.763-14.317 0-11.004-8.22-18.653-20.004-18.653Zm8.498 27.992c-2.298 2.073-5.256 2.969-9.957 2.969h-1.952v-24.65h1.952c4.701 0 7.546.839 9.957 3.016 2.514 2.236 4.014 5.698 4.014 9.273 0 3.582-1.5 7.165-4.014 9.392Zm14.861 9.278h7.262V5.3h-7.262v37.27Zm25.041-22.974c-4.364-1.617-5.649-2.683-5.649-4.688 0-2.349 2.287-4.136 5.422-4.136 2.18 0 3.968.894 5.873 3.01l3.796-4.965c-3.13-2.744-6.873-4.14-10.957-4.14-6.588 0-11.621 4.586-11.621 10.671 0 5.146 2.345 7.77 9.165 10.235 2.852 1.001 4.302 1.669 5.03 2.125 1.453.95 2.182 2.287 2.182 3.85 0 3.023-2.405 5.255-5.65 5.255-3.466 0-6.258-1.73-7.935-4.972l-4.689 4.532c3.346 4.911 7.371 7.097 12.91 7.097 7.544 0 12.85-5.036 12.85-12.243 0-5.925-2.453-8.609-10.727-11.63Zm13.017 4.357c0 10.965 8.61 19.458 19.678 19.458 3.129 0 5.811-.619 9.112-2.178V32.68c-2.91 2.91-5.481 4.08-8.78 4.08-7.32 0-12.52-5.31-12.52-12.858 0-7.15 5.363-12.796 12.188-12.796 3.46 0 6.091 1.23 9.112 4.19V6.742c-3.185-1.615-5.816-2.28-8.946-2.28-11.012 0-19.844 8.663-19.844 19.493Zm87.692 6.382-9.948-25.035h-7.937l15.822 38.222h3.909L185.897 5.3h-7.879l-10.066 25.035Zm21.249 12.235h20.62v-6.31h-13.355V26.196h12.844v-6.311h-12.844v-8.272h13.355V5.3h-20.62v37.27Zm49.396-26.27c0-6.983-4.8-11-13.188-11h-10.788v37.27h7.272V27.59h.952L232.9 42.57h8.943l-11.744-15.7c5.485-1.12 8.498-4.867 8.498-10.57Zm-14.588 6.154h-2.116V11.161h2.232c4.537 0 6.995 1.906 6.995 5.533 0 3.742-2.458 5.761-7.111 5.761Z"/><defs><linearGradient id="a" x1="119.513" x2="146.337" y1="8.12" y2="36.451" gradientUnits="userSpaceOnUse"><stop stop-color="#F34F26"/><stop offset="1" stop-color="#F69E35"/></linearGradient></defs></svg>
